pix_core/e/split_cells.svg

<!DOCTYPE svg PUBLIC "-//W3C//DTD SVG 1.1//EN" "http://www.w3.org/Graphics/SVG/1.1/DTD/svg11.dtd" [
	<!ENTITY ns_flows "http://ns.adobe.com/Flows/1.0/">
]><svg xmlns="http://www.w3.org/2000/svg" width="16" height="16" viewBox="0 -1 16 16" preserveAspectRatio="xMinYMid meet" overflow="visible" enable-background="new 0 -1 16 16"><path d="M0 0v14h16v-14h-16zm6 2h4v3h-4v-3zm-1 11h-4v-3h4v3zm0-4h-4v-3h4v3zm0-4h-4v-3h4v3zm10 5h-4v3h-1v-3h-4v-1h4v-3h1v3h4v1zm0-5h-4v-3h4v3z" fill="#999"/></svg>

<!DOCTYPE svg PUBLIC "-//W3C//DTD SVG 1.1//EN" "http://www.w3.org/Graphics/SVG/1.1/DTD/svg11.dtd" [
	<!ENTITY ns_flows "http://ns.adobe.com/Flows/1.0/">
]><svg xmlns="http://www.w3.org/2000/svg" width="16" height="16" viewBox="0 -1 16 16" preserveAspectRatio="xMinYMid meet" overflow="visible" enable-background="new 0 -1 16 16"><path d="M0 0v14h16V0H0zm6 2h4v3H6V2zM5 13H1v-3h4v3zm0-4H1V6h4v3zm0-4H1V2h4v3zm10 5h-4v3h-1v-3H6V9h4V6h1v3h4v1zm0-5h-4V2h4v3z" fill="#999"/></svg>
